img/icons-twitter.svg

<svg width="24" height="19" viewBox="0 0 24 19" fill="none" xmlns="http://www.w3.org/2000/svg">
<g id="akar-icons_twitter-fill">
<path id="Path" d="M23.2803 2.2449C22.4243 2.62425 21.5046 2.88059 20.5376 2.99644C21.5353 2.39951 22.2817 1.46 22.6375 0.353233C21.7002 0.909955 20.6743 1.30183 19.6047 1.51182C18.8853 0.743735 17.9325 0.234627 16.8941 0.0635588C15.8558 -0.107509 14.7899 0.0690093 13.8622 0.565727C12.9344 1.06245 12.1967 1.85156 11.7634 2.81055C11.33 3.76955 11.2255 4.84478 11.4659 5.86931C9.56669 5.77396 7.70881 5.28033 6.01275 4.42047C4.31671 3.56061 2.82042 2.35375 1.62099 0.878188C1.21087 1.58564 0.975051 2.40587 0.975051 3.27942C0.974596 4.06582 1.16825 4.84017 1.53884 5.53377C1.90943 6.22737 2.44549 6.81877 3.09946 7.25551C2.34103 7.23137 1.59933 7.02644 0.936098 6.65777V6.71929C0.936012 7.82224 1.31753 8.89124 2.01592 9.74495C2.71429 10.5986 3.68651 11.1843 4.76761 11.4028C4.06405 11.5932 3.3264 11.6212 2.6104 11.4848C2.91542 12.4339 3.50958 13.2638 4.30969 13.8584C5.1098 14.4529 6.07581 14.7824 7.07248 14.8006C5.38057 16.1289 3.29108 16.8492 1.14013 16.846C0.759112 16.8462 0.378416 16.8239 0 16.7795C2.18334 18.1833 4.72491 18.9283 7.32059 18.9253C16.1074 18.9253 20.9109 11.6478 20.9109 5.33616C20.9109 5.1311 20.9058 4.92399 20.8965 4.71893C21.8309 4.04323 22.6374 3.20652 23.2782 2.24798L23.2803 2.2449Z" fill="white"/>
</g>
</svg>

<svg xmlns="http://www.w3.org/2000/svg" width="24" height="19" fill="none" viewBox="0 0 24 19"><g id="akar-icons_twitter-fill"><path id="Path" fill="#fff" d="M23.28 2.245a9.6 9.6 0 0 1-2.742.751 4.8 4.8 0 0 0 2.1-2.643 9.5 9.5 0 0 1-3.033 1.159 4.778 4.778 0 0 0-8.14 4.357A13.56 13.56 0 0 1 1.622.88a4.8 4.8 0 0 0-.646 2.4A4.78 4.78 0 0 0 3.1 7.256a4.76 4.76 0 0 1-2.163-.598v.061a4.78 4.78 0 0 0 3.832 4.684 4.8 4.8 0 0 1-2.158.082A4.78 4.78 0 0 0 7.072 14.8a9.6 9.6 0 0 1-5.932 2.045A10 10 0 0 1 0 16.779a13.5 13.5 0 0 0 7.32 2.146c8.787 0 13.59-7.277 13.59-13.589q0-.309-.014-.617a9.7 9.7 0 0 0 2.382-2.471z"/></g></svg>
